public/icons/jvscrpt.svg

<svg width="64" height="64" viewBox="0 0 64 64" fill="none" xmlns="http://www.w3.org/2000/svg">
<rect x="4" y="4" width="56" height="56" rx="2" fill="#F3BA2F"/>
<path d="M38 50.5753L42.1231 47.8471C42.4462 48.8622 44.4923 51.2732 47.0769 51.2732C49.6615 51.2732 50.8615 49.8615 50.8615 48.9257C50.8615 46.3753 48.2223 45.4761 46.9547 45.0442C46.7481 44.9738 46.5779 44.9158 46.4615 44.8651C46.4019 44.8391 46.3116 44.8046 46.1958 44.7604C44.7859 44.2217 39.5846 42.2345 39.5846 36.4743C39.5846 30.1296 45.7077 29.4 47.0923 29.4C47.9982 29.4 52.3538 29.511 54.5231 33.5875L50.5231 36.3791C49.6462 34.6026 48.1892 34.0157 47.2923 34.0157C45.0769 34.0157 44.6154 35.6399 44.6154 36.3791C44.6154 38.4536 47.0223 39.3833 49.0547 40.1684C49.5864 40.3738 50.0925 40.5693 50.5231 40.7728C52.7385 41.8197 56 43.5327 56 48.9257C56 51.6269 53.7344 56 48.0308 56C40.3692 56 38.3385 51.4001 38 50.5753Z" fill="white"/>
<path d="M18 51.1171L22.2973 48.3902C22.6341 49.4049 23.9425 51.2756 25.8411 51.2756C27.7396 51.2756 28.7113 49.3256 28.7113 48.3902L28.7113 30L33.9964 30L33.9964 48.3902C34.0819 50.9268 32.6751 56 26.4664 56C20.758 56 18.3848 52.6073 18 51.1171Z" fill="white"/>
</svg>

<svg width="64" height="64" fill="none" xmlns="http://www.w3.org/2000/svg"><rect x="4" y="4" width="56" height="56" rx="2" fill="#F3BA2F"/><path d="m38 50.575 4.123-2.728c.323 1.015 2.37 3.426 4.954 3.426 2.584 0 3.785-1.412 3.785-2.347 0-2.55-2.64-3.45-3.907-3.882a7.353 7.353 0 0 1-.493-.179c-.06-.026-.15-.06-.266-.105-1.41-.538-6.611-2.526-6.611-8.286 0-6.344 6.123-7.074 7.507-7.074.906 0 5.262.111 7.431 4.188l-4 2.791c-.877-1.776-2.334-2.363-3.23-2.363-2.216 0-2.678 1.624-2.678 2.363 0 2.075 2.407 3.004 4.44 3.79.531.205 1.038.4 1.468.604C52.738 41.82 56 43.533 56 48.926c0 2.7-2.266 7.074-7.97 7.074-7.66 0-9.691-4.6-10.03-5.425ZM18 51.117l4.297-2.727c.337 1.015 1.645 2.886 3.544 2.886s2.87-1.95 2.87-2.886V30h5.285v18.39c.086 2.537-1.32 7.61-7.53 7.61-5.708 0-8.081-3.393-8.466-4.883Z" fill="#fff"/></svg>
